X:27
T:Overture to Il Tancredi. ET.27
M:C
L:1/8
Q:1/4=120
S:Eliza Tennyson MS, Lincolnshire,1822
R:overture
C:Rossini, first produced in 1813
O:England;Lincolnshire;Somersby
Z:vmp.R.Greig 2012 <http://www.village-music-project.org.uk>
K:D clef=treble
“^ff”F,//G,//C//D2z3(D//E// F>)(F/G// A>)(A/B//c//|d2)”pp”[f’4d4]e’2|\
d’2=c’3b2z2|”^ff”(B,//C//^D//E2)z(E//F// G>)(G/A// B)(B//c//^d//|e2)b4a2|!
g2=f’2e’2z2|”p”E4F2>A2|C>DE>C D/ (A/.B/.c/.d/.e/.f/.g/)|a4^g>ab>g|!
a2z2z4|A8|A2(a2z2fd)|c2(e4cA)|d2(a4fd)|b4a4(c/^d/e/f/)|!
g2B4(c/^d/e/f/)|(ag/)z/ (gf/)z/ (fe/)z/ (ed/)z/| c”^f”a z2z”^f”a “p”(fd)|c!f!az2z!f!a zz|!
zaz2za g/f/e/d/|c2z2(=f3g/a/)|e2z(=f3g/a/)|e2z2(=F3G/A/)|!
E2z2(=F3G/A/)|E2z2(d3e/=f/)|c2z2 (F3G/A/)|czz2!pp!cz c|c2z2″ppp”Az Az|HA2z2||!
“^Allegro”(3z.A.B (3cde|”pp”f>f f>f f>f (3agf|e>e e>e e>e (3gfe|d>d d>d d>d (3dBe|!
A4(3z.B.c (3.^d.e.f|g>g g>g g>g (3bag|e>e e’>e’ e>e (3efg|a>a a>a a>a (3abc’||!
[d’4d4]z2(3c^d^e|f>f f>f f>f (3^gfg|a4f2(3c^d^e|f>f f>f f>f (3^gfg|!
(a6=g2)|f>f f>f f>f (3agf|e>e e>e e>e (3gfe|d>d d>d d>d (3dBe|!
A4(3zBc (3^d^ef|g>g g>g g>g (3bag|e>e e’>e’ e>e (3efg|a>a (3.d.e.f g>g (3.A.B.c|!
d2z(3a/b/c’/ d’2z (3a/b/c’/|.d’8|d’c’/b/ a/g/f/e/ d/c/B/A/ G/F/E/D/|CE/D/ C CE/D/ C|!
CGEc Aecg|ec’ae’ c’g’e’c’|d’2z (3a/b/c’/ d’2z (3a/b/c’/|d’d’/d’/ d’d’ d’d’d’d’|!
d’c’/b/ a/g/f/e/ d/c/B/A/ G/F/E/D/|CE/D/ Cz CE/D/ Cz|.C.G.E.c .A.e.c.g|.e.c’.^a.e’ .c’.a.f.a|!
b2z f/^g/^a/ b2z f/g/a/|b8|d’c’/b/ a/^g/f/e/ d/c/B/A/ ^G/F/E/D/|CE/D/ Cz CE/D/z|!
.C.A.F.c .A.f.c.a|.^d.a.d.^c’ .d.b.d.b|E/e/E/e/ F/f/F/f/ ^G/^g/G/g A/a/A/a/|B/b/B/b/ c/c’/c/c’/ d/d’/d/d’/ a/^d’/a/d’/|!
^a/e’/a/e’/ f/^d’/f/d’/ e/=d’/e/d’/ e/c’/e/c’/|d/b/d/b/ c/a/c/a/ B/^g/B/g/ A/e/A/e/|^G/e/G/e/ F/^d/F/d/ E/=d/E/d/ E/c/E/c/|!
D/B/D/B/ C/A/C/A/ B,/^G/B,/G/ A,/F/A,/F/|^G,/F/G,/F/ A,/=F/^C/F/ G,/E/B,/E/ G,/F/C/F/|^G,/E/B,/E/ A,/^D/=C/D/ ^G,/E/B,/E/ A,/^D/=C/D/|!
“^ff”E2 (6F/^G/A/B/c/d/ eeee|e2 (6f/^g/a/b/c’/^d’/ e’e’e’e’|e’2 e’/^d’/c’/b/ e’/d’/c’/b/ e’/d’/c’/b/|e’2 E/^D/C/G,/ E/D/C/G,/ E/D/C/G,/|!
E2ze’/ e’2z e/|e2z E/E2E2|E4z4|z8|”pp”D8|C2z2z4|B,8|A,zz2z4|”dol”e3 f e3 f|!
e3a/c’/ .e’.e’.e’.e’|”triplet signs added”(3f’e’.d’ (3f’d’.c’ (3d’c’.b (3c’b.a|(3ba^g (3agf (3gfe (3fe^d|e3fe3f|!
e3a/c’/ .e’.e’.e’.e’|”triplet signs added”(3f’e’d’ (3e’d’c’ (3d’c’b (3c’ba|(3ba^g (3agf (3gfe (3dcB|!p!A3BA3B|!
A3B dcBA|B3cB3c|B3c edcB|c3dc3d|c3d fedc|d3ed3e|d3e ^gfed|!
a3ba3b|a3b d’c’ba|b3c’b3c’|b3c’ e’d’c’b|!
a3b d’c’ba|b3c’ e’d’c’b|d’c’ba e’d’c’b|d’c’ba e’d’c’b|!
c’2zc’c’2c’2|c’2zc’c’2c’2|d’2z d’d’2d’2|c’2zc’ c’b2zb|!
c’2d’2c’2b2|c’2d’2c’2b2|c’2d’2c’2b2|a2z>a a2z>c’|!
c’2z>e’e’2z>=g’|g’4!pp!(3z.A.B (3.c.d.e|f>f f>f f>f (3agf|e>e e>e e>e (3gfe|!
d>d d>d d>d (3dBe|A4(3zBc (3^def|g>g g>g g>g (3c’af|!
e>(e e’)>(e’ e)>e (3efg|a>a a>a a>a abc’|d4z (3c^d^e|f>f f>f f>f (3^gfg|!
(a4f2) (3c^d^e|f>f f>f f>f (3^gfg|a8|!
“^dol”A3BA3B|A3d/f/ aaaa|(3ba.g (3ag.f (3gf.e (3fe.d|(3ed.c (3dc.B (3BA.^G|!
A3BA3B|A3d/f/ aaaa|(3ba.g (3ag.f (3gf.e (3fe.d|(3ed.c (3dc.B (3cB.A (3gf.e|!
d3ed3e|d3e gfed|e3fe3f|e3f agfe|!
d3ed3e|d3e gfed|e3fe3f|e3f agfe|!
f3gf3g|f3g bagf|g3ag3a|g3a c’bag|!
f3g bagf|g3a c’bag|bagf c’bag|bagf c’bag|!
f2zbd’2d’2|d’2zd’d’2d’2|e’2ze’e’2e’2|d’2zd’c’2c’2|!
d’2{Bc}fd ge c’>c’|d’2{de}fd ge c’>c’|d’2{de}fd ge c’>c’|d’2{de}fd ge c’>c’|!
d’2{de}fd ge af|bg c’a d’b e’c’|=f’8|d’8|a2 (6=Bcdefg a2d’2|!
A2 (6Bcdefga2c’2|d’2{de}fd ge c’>c’|d’2{de}fd ge c’>g|d’2{de}fd ge c’>c’|!
d’2{de}fd ge af|bg c’a d’b e’c’|=f’4=c’2a2|=f2-f2e2d2|!
A2 (6B^cdefg a2d’2|A2 (6Bcdefg a2c’2|z2d’2z2c’2|z2d’2z2c’2|!
z2d’2c’2c’2|d’2d’2c’2c’2|d’2z2d’2z2|d’2zzd’2z2|d’2a2d’2a2|!
d’2a2d’2a2|d’4z2z// d/e/f/g/a/b/c’/|d’4z2z>D|D8|]

